<?xml version="1.0"?>
<VTKFile type="RectilinearGrid" version="0.1" byte_order="LittleEndian">
<RectilinearGrid WholeExtent="0 22 0 20 0 0">
<Piece Extent="0 22 0 20 0 0">
<Coordinates>
<DataArray type="Float64" Name="XCoordinates" format="ascii">
0 0.0470772 0.0947193 0.142933 0.191725 0.241102 0.291069 0.341635 0.392805 0.444585 0.496981 0.55 0.603019 0.655415 0.707195 0.758365 0.808931 0.858898 0.908275 0.957067 1.00528 1.05292 1.1 
</DataArray>
<DataArray type="Float64" Name="YCoordinates" format="ascii">
0 0.0385824 0.0774735 0.116676 0.156191 0.196023 0.236173 0.276643 0.317436 0.358554 0.4 0.441446 0.482564 0.523357 0.563827 0.603977 0.643809 0.683324 0.722526 0.761418 0.8 
</DataArray>
<DataArray type="Float64" Name="YCoordinates" format="ascii">
0 
</DataArray>
</Coordinates>
<CellData Scalars="x">
<DataArray type="Float64" Name="0.006000" format="ascii">
23.1801
23.1817
23.1849
23.19
23.197
23.2061
23.2178
23.2324
23.2505
23.2729
23.3035
23.3438
23.3927
23.4525
23.5277
23.6252
23.7571
23.9472
24.2483
24.8047
26.1209
30.4277
23.5407
23.5455
23.5552
23.5703
23.5912
23.6187
23.6536
23.6973
23.7513
23.8181
23.9094
24.0296
24.1748
24.3522
24.574
24.8596
25.2415
25.7794
26.5913
27.9329
30.3963
35.3194
23.901
23.9089
23.925
23.95
23.9847
24.0302
24.088
24.1602
24.2494
24.3594
24.5097
24.7069
24.9442
25.2326
25.5901
26.0442
26.6396
27.4506
28.6071
30.3384
33.0308
37.1893
24.2588
24.2697
24.292
24.3267
24.3747
24.4377
24.5177
24.6173
24.7402
24.8914
25.0974
25.3669
25.6893
26.0781
26.5544
27.1494
27.9103
28.9091
30.2552
32.1077
34.6619
38.0383
24.6118
24.6256
24.6539
24.6979
24.7587
24.8384
24.9394
25.0649
25.2194
25.4089
25.6663
26.0016
26.4002
26.8761
27.4515
28.1569
29.0354
30.1468
31.5706
33.4002
35.7138
38.4929
24.9577
24.9743
25.0084
25.0611
25.1341
25.2294
25.35
25.4994
25.6829
25.907
26.2105
26.6041
27.0688
27.6179
28.272
29.0586
30.0132
31.1806
32.6119
34.3544
36.426
38.7704
25.2944
25.3136
25.353
25.414
25.4982
25.6081
25.7465
25.9177
26.1269
26.3816
26.7251
27.169
27.6894
28.2978
29.012
29.8546
30.8528
32.0372
33.4371
35.0713
36.9305
38.9562
25.6196
25.6412
25.6856
25.7542
25.8488
25.9718
26.1265
26.3168
26.5483
26.8287
27.2056
27.6919
28.2583
28.9133
29.6714
30.5499
31.568
32.7447
34.0946
35.6201
37.3016
39.0886
25.9311
25.955
26.004
26.0795
26.1835
26.3185
26.4874
26.6944
26.9445
27.2453
27.6478
28.1695
28.7734
29.4644
30.2532
31.1522
32.174
33.329
34.6221
36.0473
37.5827
39.187
26.227
26.2529
26.3061
26.3879
26.5004
26.646
26.8276
27.0487
27.3139
27.629
28.0466
28.599
29.2339
29.9523
30.7616
31.6701
32.6854
33.8117
35.0481
36.3847
37.8005
39.2624
26.4832
26.5109
26.5675
26.6546
26.7741
26.9284
27.1203
27.3529
27.6294
27.9518
28.3909
28.9775
29.6391
30.3781
31.2002
32.1108
33.1135
34.2089
35.3923
36.6528
37.9712
39.321
26.6966
26.7256
26.785
26.8762
27.0013
27.1626
27.3627
27.6045
27.8912
28.2255
28.6926
29.3065
29.9893
30.7433
31.5726
32.4806
33.468
34.5331
35.6695
36.8659
38.1055
39.3669
26.8863
26.9165
26.9782
27.0731
27.203
27.3702
27.5774
27.8274
28.1234
28.469
28.955
29.5892
30.288
31.0522
31.885
32.7875
33.7592
34.7964
35.8921
37.0354
38.2117
39.403
27.0521
27.0833
27.147
27.2449
27.3789
27.5511
27.7643
28.0213
28.3255
28.6806
29.1801
29.8292
30.5395
31.3106
32.1441
33.0401
33.9966
35.0092
36.0705
37.1703
38.2957
39.4315
27.1938
27.2258
27.2912
27.3916
27.5289
27.7054
27.9236
28.1865
28.4973
28.86
29.3695
30.0293
30.7478
31.5231
32.3558
33.245
34.1879
35.1794
36.2123
37.2769
38.3618
39.4539
27.3114
27.344
27.4108
27.5132
27.6532
27.8331
28.0554
28.323
28.6392
29.0076
29.5244
30.192
30.9161
31.6938
32.5249
33.4078
34.3389
35.3131
36.323
37.3599
38.4131
39.4712
27.4048
27.438
27.5058
27.6098
27.752
27.9345
28.16
28.4312
28.7514
29.1242
29.6462
30.3192
31.047
31.826
32.6554
33.5327
34.4544
35.4148
36.4071
37.4226
38.4517
39.4842
27.4743
27.5079
27.5765
27.6817
27.8254
28.0099
28.2377
28.5116
28.8347
29.2105
29.7361
30.4127
31.1429
31.9225
32.7502
33.6233
34.5378
35.4881
36.4674
37.4675
38.4794
39.4936
27.5203
27.5541
27.6232
27.7292
27.8739
28.0597
28.289
28.5646
28.8895
29.2673
29.7951
30.4739
31.2056
31.9854
32.8118
33.682
34.5917
35.5354
36.5062
37.4964
38.4972
39.4996
27.543
27.577
27.6463
27.7526
27.8979
28.0843
28.3143
28.5907
28.9166
29.2954
29.8242
30.5041
31.2363
32.0163
32.8421
33.7107
34.6181
35.5584
36.5252
37.5104
38.5058
39.5025
</DataArray>
</CellData>
</Piece>
</RectilinearGrid>
</VTKFile>
