<?xml version="1.0"?>
<VTKFile type="RectilinearGrid" version="0.1" byte_order="LittleEndian">
<RectilinearGrid WholeExtent="0 22 0 20 0 0">
<Piece Extent="0 22 0 20 0 0">
<Coordinates>
<DataArray type="Float64" Name="XCoordinates" format="ascii">
0 0.0470772 0.0947193 0.142933 0.191725 0.241102 0.291069 0.341635 0.392805 0.444585 0.496981 0.55 0.603019 0.655415 0.707195 0.758365 0.808931 0.858898 0.908275 0.957067 1.00528 1.05292 1.1 
</DataArray>
<DataArray type="Float64" Name="YCoordinates" format="ascii">
0 0.0385824 0.0774735 0.116676 0.156191 0.196023 0.236173 0.276643 0.317436 0.358554 0.4 0.441446 0.482564 0.523357 0.563827 0.603977 0.643809 0.683324 0.722526 0.761418 0.8 
</DataArray>
<DataArray type="Float64" Name="YCoordinates" format="ascii">
0 
</DataArray>
</Coordinates>
<CellData Scalars="x">
<DataArray type="Float64" Name="0.003000" format="ascii">
23.1756
23.1772
23.1805
23.1855
23.1926
23.2019
23.2137
23.2284
23.2466
23.2691
23.3
23.3405
23.3896
23.4498
23.5252
23.623
23.7553
23.9457
24.2471
24.8039
26.1204
30.4276
23.5271
23.5319
23.5417
23.557
23.5781
23.6059
23.6411
23.6852
23.7397
23.8069
23.8988
24.0197
24.1657
24.3439
24.5667
24.8531
25.236
25.7749
26.5878
27.9303
30.3948
35.3189
23.8783
23.8863
23.9026
23.9278
23.9629
24.0088
24.0672
24.14
24.23
24.3407
24.492
24.6904
24.929
25.2188
25.5778
26.0335
26.6304
27.443
28.6012
30.3342
33.0282
37.1884
24.2271
24.2381
24.2607
24.2957
24.3443
24.4079
24.4886
24.5891
24.713
24.8653
25.0727
25.3439
25.6682
26.0589
26.5372
27.1344
27.8975
28.8985
30.247
32.1018
34.6584
38.0371
24.5712
24.5852
24.6139
24.6583
24.7198
24.8003
24.9022
25.0288
25.1846
25.3755
25.6347
25.9721
26.3731
26.8515
27.4295
28.1376
29.019
30.1333
31.56
33.3926
35.7092
38.4914
24.9085
24.9253
24.9597
25.013
25.0868
25.1831
25.3048
25.4556
25.6406
25.8665
26.1721
26.5684
27.0359
27.588
28.2453
29.0352
29.9933
31.1642
32.5991
34.3453
36.4205
38.7686
25.2367
25.2562
25.2961
25.3577
25.4428
25.5538
25.6936
25.8664
26.0774
26.3341
26.6801
27.1271
27.6509
28.2628
28.9807
29.8273
30.8295
32.018
33.4221
35.0606
36.9241
38.9541
25.5538
25.5757
25.6206
25.69
25.7856
25.9099
26.0661
26.2582
26.4918
26.7745
27.1543
27.6441
28.2143
28.8734
29.6358
30.5187
31.5414
32.7228
34.0775
35.6079
37.2942
39.0862
25.8577
25.8819
25.9314
26.0077
26.1129
26.2492
26.4199
26.6288
26.8812
27.1846
27.5904
28.116
28.7242
29.4197
30.2133
31.1173
32.1442
33.3045
34.603
36.0337
37.5745
39.1843
26.1462
26.1725
26.2262
26.309
26.4227
26.5698
26.7532
26.9766
27.2442
27.5621
27.9834
28.5402
29.1799
29.9032
30.7178
31.6318
32.6526
33.7848
35.0271
36.3697
37.7915
39.2594
26.3962
26.4242
26.4814
26.5695
26.6903
26.8463
27.0401
27.275
27.5541
27.8793
28.3224
28.9138
29.5805
30.3249
31.1527
32.0692
33.078
34.1796
35.3695
36.6365
37.9614
39.3178
26.6043
26.6337
26.6937
26.786
26.9125
27.0754
27.2775
27.5218
27.8112
28.1484
28.6194
29.2384
29.9266
30.6863
31.5217
32.436
33.43
34.5018
35.645
36.8484
38.0951
39.3634
26.7893
26.8199
26.8823
26.9782
27.1095
27.2785
27.4878
27.7402
28.039
28.3877
28.8777
29.5171
30.2216
30.9919
31.831
32.7403
33.7189
34.7632
35.8662
37.0169
38.2006
39.3993
26.9509
26.9825
27.047
27.1459
27.2813
27.4555
27.6708
27.9303
28.2373
28.5955
29.0992
29.7537
30.4699
31.2473
32.0875
32.9905
33.9543
34.9743
36.0433
37.1509
38.284
39.4276
27.089
27.1214
27.1876
27.2891
27.4279
27.6063
27.8267
28.0922
28.4059
28.7717
29.2854
29.9508
30.6754
31.4572
32.2969
33.1934
34.1438
35.1431
36.1839
37.2567
38.3496
39.4498
27.2035
27.2366
27.3041
27.4077
27.5493
27.7311
27.9557
28.2259
28.545
28.9167
29.4377
30.111
30.8414
31.6258
32.4641
33.3545
34.2934
35.2756
36.2938
37.3389
38.4005
39.467
27.2945
27.3281
27.3967
27.5019
27.6457
27.8302
28.058
28.3318
28.655
29.0311
29.5574
30.2363
30.9705
31.7564
32.593
33.4781
34.4077
35.3764
36.3771
37.4011
38.4389
39.48
27.3623
27.3963
27.4656
27.572
27.7174
27.9038
28.1339
28.4105
28.7366
29.1158
29.6457
30.3283
31.065
31.8516
32.6867
33.5676
34.4902
35.449
36.4368
37.4456
38.4663
39.4892
27.407
27.4413
27.5111
27.6183
27.7647
27.9524
28.1841
28.4624
28.7904
29.1715
29.7037
30.3885
31.1267
31.9136
32.7476
33.6257
34.5436
35.4958
36.4753
37.4742
38.4839
39.4951
27.4291
27.4635
27.5336
27.6412
27.7881
27.9765
28.2089
28.488
28.817
29.199
29.7323
30.4182
31.157
31.9441
32.7774
33.6541
34.5697
35.5186
36.494
37.4882
38.4925
39.498
</DataArray>
</CellData>
</Piece>
</RectilinearGrid>
</VTKFile>
