<?xml version="1.0"?>
<VTKFile type="RectilinearGrid" version="0.1" byte_order="LittleEndian">
<RectilinearGrid WholeExtent="0 22 0 20 0 0">
<Piece Extent="0 22 0 20 0 0">
<Coordinates>
<DataArray type="Float64" Name="XCoordinates" format="ascii">
0 0.0470772 0.0947193 0.142933 0.191725 0.241102 0.291069 0.341635 0.392805 0.444585 0.496981 0.55 0.603019 0.655415 0.707195 0.758365 0.808931 0.858898 0.908275 0.957067 1.00528 1.05292 1.1 
</DataArray>
<DataArray type="Float64" Name="YCoordinates" format="ascii">
0 0.0385824 0.0774735 0.116676 0.156191 0.196023 0.236173 0.276643 0.317436 0.358554 0.4 0.441446 0.482564 0.523357 0.563827 0.603977 0.643809 0.683324 0.722526 0.761418 0.8 
</DataArray>
<DataArray type="Float64" Name="YCoordinates" format="ascii">
0 
</DataArray>
</Coordinates>
<CellData Scalars="x">
<DataArray type="Float64" Name="0.007000" format="ascii">
23.1801
23.1817
23.185
23.19
23.197
23.2062
23.2178
23.2324
23.2505
23.2729
23.3035
23.3438
23.3927
23.4525
23.5277
23.6252
23.7571
23.9472
24.2483
24.8047
26.1209
30.4277
23.5408
23.5455
23.5552
23.5703
23.5912
23.6187
23.6537
23.6973
23.7514
23.8181
23.9094
24.0296
24.1748
24.3522
24.5741
24.8596
25.2415
25.7794
26.5913
27.9329
30.3963
35.3194
23.9011
23.9089
23.9251
23.95
23.9847
24.0302
24.0881
24.1602
24.2495
24.3594
24.5097
24.707
24.9443
25.2326
25.5901
26.0443
26.6396
27.4506
28.6071
30.3384
33.0308
37.1893
24.2589
24.2698
24.2921
24.3268
24.3748
24.4378
24.5178
24.6174
24.7403
24.8914
25.0975
25.367
25.6894
26.0781
26.5544
27.1495
27.9104
28.9091
30.2552
32.1077
34.6619
38.0383
24.6119
24.6257
24.6541
24.698
24.7588
24.8385
24.9395
25.065
25.2195
25.409
25.6664
26.0017
26.4002
26.8762
27.4516
28.1569
29.0354
30.1469
31.5706
33.4002
35.7138
38.4929
24.9579
24.9745
25.0085
25.0612
25.1342
25.2296
25.3501
25.4996
25.683
25.9072
26.2106
26.6042
27.0689
27.6179
28.2721
29.0587
30.0133
31.1807
32.6119
34.3544
36.426
38.7704
25.2946
25.3138
25.3532
25.4141
25.4984
25.6082
25.7467
25.9179
26.1271
26.3817
26.7252
27.1691
27.6895
28.2979
29.0121
29.8547
30.8529
32.0372
33.4372
35.0713
36.9305
38.9562
25.6198
25.6414
25.6858
25.7544
25.849
25.972
26.1266
26.317
26.5485
26.8289
27.2057
27.6921
28.2584
28.9134
29.6716
30.55
31.5681
32.7448
34.0947
35.6201
37.3016
39.0886
25.9314
25.9553
26.0042
26.0797
26.1837
26.3187
26.4876
26.6946
26.9447
27.2455
27.648
28.1696
28.7735
29.4645
30.2533
31.1523
32.1741
33.3291
34.6222
36.0474
37.5827
39.187
26.2272
26.2532
26.3063
26.3881
26.5006
26.6462
26.8278
27.049
27.3141
27.6292
28.0468
28.5992
29.2341
29.9524
30.7617
31.6703
32.6855
33.8118
35.0482
36.3848
37.8005
39.2624
26.4835
26.5112
26.5677
26.6548
26.7743
26.9286
27.1205
27.3531
27.6297
27.952
28.3911
28.9777
29.6393
30.3783
31.2004
32.111
33.1137
34.209
35.3924
36.6529
37.9712
39.321
26.6969
26.7259
26.7852
26.8765
27.0016
27.1629
27.3629
27.6048
27.8915
28.2258
28.6928
29.3067
29.9895
30.7434
31.5728
32.4807
33.4682
34.5332
35.6695
36.8659
38.1056
39.3669
26.8866
26.9168
26.9785
27.0734
27.2033
27.3705
27.5776
27.8276
28.1237
28.4693
28.9552
29.5895
30.2882
31.0524
31.8851
32.7877
33.7593
34.7965
35.8922
37.0355
38.2117
39.403
27.0525
27.0836
27.1474
27.2452
27.3792
27.5514
27.7646
28.0216
28.3258
28.6809
29.1804
29.8294
30.5398
31.3108
32.1442
33.0402
33.9967
35.0093
36.0706
37.1704
38.2957
39.4315
27.1942
27.2262
27.2915
27.3919
27.5292
27.7057
27.9239
28.1868
28.4976
28.8603
29.3697
30.0296
30.748
31.5233
32.356
33.2451
34.188
35.1795
36.2123
37.277
38.3618
39.4539
27.3117
27.3444
27.4111
27.5135
27.6536
27.8335
28.0557
28.3233
28.6395
29.0079
29.5246
30.1922
30.9163
31.694
32.5251
33.4079
34.339
35.3132
36.3231
37.3599
38.4131
39.4712
27.4051
27.4383
27.5061
27.6101
27.7523
27.9349
28.1603
28.4315
28.7517
29.1245
29.6465
30.3195
31.0473
31.8263
32.6555
33.5329
34.4545
35.4149
36.4071
37.4226
38.4518
39.4843
27.4747
27.5083
27.5768
27.682
27.8258
28.0102
28.238
28.5119
28.835
29.2108
29.7363
30.413
31.1432
31.9228
32.7504
33.6235
34.5379
35.4882
36.4675
37.4675
38.4794
39.4936
27.5206
27.5545
27.6235
27.7295
27.8743
28.06
28.2893
28.5649
28.8898
29.2676
29.7953
30.4742
31.2058
31.9856
32.812
33.6822
34.5918
35.5355
36.5063
37.4964
38.4972
39.4996
27.5434
27.5773
27.6467
27.753
27.8982
28.0846
28.3146
28.5911
28.9169
29.2956
29.8244
30.5043
31.2366
32.0165
32.8422
33.7109
34.6182
35.5586
36.5253
37.5105
38.5059
39.5025
</DataArray>
</CellData>
</Piece>
</RectilinearGrid>
</VTKFile>
