<?xml version="1.0"?>
<VTKFile type="RectilinearGrid" version="0.1" byte_order="LittleEndian">
<RectilinearGrid WholeExtent="0 22 0 20 0 0">
<Piece Extent="0 22 0 20 0 0">
<Coordinates>
<DataArray type="Float64" Name="XCoordinates" format="ascii">
0 0.0470772 0.0947193 0.142933 0.191725 0.241102 0.291069 0.341635 0.392805 0.444585 0.496981 0.55 0.603019 0.655415 0.707195 0.758365 0.808931 0.858898 0.908275 0.957067 1.00528 1.05292 1.1 
</DataArray>
<DataArray type="Float64" Name="YCoordinates" format="ascii">
0 0.0385824 0.0774735 0.116676 0.156191 0.196023 0.236173 0.276643 0.317436 0.358554 0.4 0.441446 0.482564 0.523357 0.563827 0.603977 0.643809 0.683324 0.722526 0.761418 0.8 
</DataArray>
<DataArray type="Float64" Name="YCoordinates" format="ascii">
0 
</DataArray>
</Coordinates>
<CellData Scalars="x">
<DataArray type="Float64" Name="0.008000" format="ascii">
23.1801
23.1817
23.185
23.19
23.197
23.2062
23.2178
23.2325
23.2505
23.2729
23.3035
23.3439
23.3927
23.4525
23.5277
23.6252
23.7571
23.9472
24.2483
24.8047
26.1209
30.4277
23.5408
23.5455
23.5552
23.5703
23.5912
23.6187
23.6537
23.6973
23.7514
23.8181
23.9094
24.0296
24.1748
24.3522
24.5741
24.8596
25.2415
25.7794
26.5913
27.9329
30.3963
35.3194
23.9011
23.909
23.9251
23.95
23.9847
24.0302
24.0881
24.1603
24.2495
24.3594
24.5097
24.707
24.9443
25.2326
25.5901
26.0443
26.6396
27.4506
28.6071
30.3384
33.0308
37.1893
24.2589
24.2698
24.2921
24.3268
24.3748
24.4378
24.5178
24.6174
24.7403
24.8915
25.0975
25.367
25.6894
26.0782
26.5544
27.1495
27.9104
28.9091
30.2552
32.1077
34.6619
38.0383
24.6119
24.6257
24.6541
24.698
24.7589
24.8385
24.9395
25.065
25.2195
25.409
25.6664
26.0017
26.4003
26.8762
27.4516
28.1569
29.0354
30.1469
31.5706
33.4002
35.7138
38.4929
24.9579
24.9745
25.0086
25.0613
25.1342
25.2296
25.3501
25.4996
25.683
25.9072
26.2106
26.6042
27.0689
27.618
28.2721
29.0587
30.0133
31.1807
32.6119
34.3544
36.426
38.7704
25.2946
25.3138
25.3532
25.4142
25.4984
25.6082
25.7467
25.9179
26.1271
26.3818
26.7252
27.1692
27.6895
28.2979
29.0121
29.8547
30.8529
32.0372
33.4372
35.0714
36.9305
38.9562
25.6198
25.6415
25.6859
25.7544
25.849
25.972
26.1267
26.317
26.5485
26.8289
27.2058
27.6921
28.2584
28.9135
29.6716
30.55
31.5681
32.7448
34.0947
35.6201
37.3016
39.0886
25.9314
25.9553
26.0042
26.0798
26.1838
26.3187
26.4877
26.6946
26.9448
27.2455
27.648
28.1697
28.7735
29.4645
30.2533
31.1523
32.1741
33.3291
34.6222
36.0474
37.5827
39.187
26.2273
26.2532
26.3063
26.3882
26.5006
26.6462
26.8278
27.049
27.3142
27.6292
28.0469
28.5992
29.2341
29.9525
30.7617
31.6703
32.6855
33.8118
35.0482
36.3848
37.8005
39.2624
26.4836
26.5112
26.5678
26.6549
26.7744
26.9287
27.1206
27.3532
27.6297
27.952
28.3911
28.9777
29.6393
30.3783
31.2004
32.111
33.1137
34.209
35.3924
36.6529
37.9712
39.321
26.6969
26.7259
26.7853
26.8765
27.0016
27.1629
27.363
27.6048
27.8915
28.2258
28.6929
29.3068
29.9896
30.7435
31.5728
32.4807
33.4682
34.5332
35.6695
36.8659
38.1056
39.3669
26.8867
26.9169
26.9786
27.0734
27.2033
27.3705
27.5777
27.8277
28.1237
28.4693
28.9553
29.5895
30.2882
31.0524
31.8851
32.7877
33.7593
34.7965
35.8922
37.0355
38.2117
39.403
27.0525
27.0837
27.1474
27.2453
27.3792
27.5515
27.7647
28.0217
28.3258
28.6809
29.1804
29.8295
30.5398
31.3108
32.1443
33.0402
33.9967
35.0093
36.0706
37.1704
38.2957
39.4315
27.1942
27.2262
27.2916
27.392
27.5293
27.7058
27.924
28.1868
28.4977
28.8603
29.3697
30.0296
30.7481
31.5233
32.356
33.2452
34.188
35.1795
36.2124
37.277
38.3618
39.4539
27.3117
27.3444
27.4111
27.5136
27.6536
27.8335
28.0558
28.3234
28.6395
29.008
29.5247
30.1923
30.9163
31.694
32.5251
33.4079
34.3391
35.3132
36.3231
37.3599
38.4131
39.4712
27.4052
27.4384
27.5062
27.6102
27.7524
27.9349
28.1604
28.4316
28.7518
29.1246
29.6465
30.3195
31.0473
31.8263
32.6556
33.5329
34.4545
35.415
36.4072
37.4226
38.4518
39.4843
27.4747
27.5083
27.5769
27.6821
27.8258
28.0103
28.2381
28.5119
28.835
29.2109
29.7364
30.413
31.1432
31.9228
32.7504
33.6235
34.5379
35.4882
36.4675
37.4676
38.4794
39.4936
27.5207
27.5545
27.6236
27.7295
27.8743
28.0601
28.2893
28.5649
28.8899
29.2677
29.7954
30.4742
31.2058
31.9857
32.8121
33.6822
34.5919
35.5355
36.5063
37.4964
38.4972
39.4996
27.5434
27.5774
27.6467
27.753
27.8983
28.0847
28.3147
28.5911
28.917
29.2957
29.8245
30.5044
31.2366
32.0165
32.8423
33.7109
34.6182
35.5586
36.5253
37.5105
38.5059
39.5025
</DataArray>
</CellData>
</Piece>
</RectilinearGrid>
</VTKFile>
