<?xml version="1.0"?>
<VTKFile type="RectilinearGrid" version="0.1" byte_order="LittleEndian">
<RectilinearGrid WholeExtent="0 22 0 20 0 0">
<Piece Extent="0 22 0 20 0 0">
<Coordinates>
<DataArray type="Float64" Name="XCoordinates" format="ascii">
0 0.0470772 0.0947193 0.142933 0.191725 0.241102 0.291069 0.341635 0.392805 0.444585 0.496981 0.55 0.603019 0.655415 0.707195 0.758365 0.808931 0.858898 0.908275 0.957067 1.00528 1.05292 1.1 
</DataArray>
<DataArray type="Float64" Name="YCoordinates" format="ascii">
0 0.0385824 0.0774735 0.116676 0.156191 0.196023 0.236173 0.276643 0.317436 0.358554 0.4 0.441446 0.482564 0.523357 0.563827 0.603977 0.643809 0.683324 0.722526 0.761418 0.8 
</DataArray>
<DataArray type="Float64" Name="YCoordinates" format="ascii">
0 
</DataArray>
</Coordinates>
<CellData Scalars="x">
<DataArray type="Float64" Name="0.001000" format="ascii">
22.986
22.9884
22.9931
23.0005
23.0105
23.0235
23.0397
23.0596
23.0838
23.1129
23.1519
23.2024
23.2624
23.3341
23.4218
23.5324
23.678
23.8821
24.1974
24.7683
26.0991
30.4205
22.9581
22.9652
22.9795
23.0014
23.0314
23.0703
23.119
23.1786
23.2508
23.3379
23.4542
23.6051
23.7836
23.9967
24.2562
24.5812
25.004
25.5839
26.4387
27.8237
30.3308
35.2977
22.9306
22.9422
22.9659
23.0023
23.0522
23.1166
23.1972
23.296
23.4155
23.5594
23.7513
23.9997
24.2926
24.6404
25.0607
25.5805
26.2438
27.1249
28.3528
30.1565
32.9217
37.153
22.9036
22.9198
22.9527
23.0032
23.0724
23.1618
23.2735
23.4101
23.5753
23.7739
24.0381
24.3791
24.7793
25.2511
25.815
26.5018
27.3577
28.4542
29.9001
31.8537
34.5096
37.9876
22.8776
22.8982
22.94
23.0041
23.0919
23.2053
23.3467
23.5194
23.728
23.9782
24.3102
24.7371
25.2354
25.8177
26.5053
27.328
28.3282
29.5647
31.1161
33.0751
35.5189
38.4281
22.8528
22.8776
22.9279
23.0051
23.1105
23.2466
23.4159
23.6225
23.8714
24.1694
24.5636
25.0688
25.6546
26.3329
27.1234
28.0525
29.1547
30.474
32.0603
33.9598
36.1894
38.6917
22.8297
22.8584
22.9168
23.0061
23.1281
23.2853
23.4806
23.7183
24.004
24.3451
24.7953
25.3704
26.033
26.7929
27.6668
28.6763
29.8474
31.2096
32.791
34.6092
36.6534
38.864
22.8085
22.8409
22.9067
23.0074
23.1448
23.3213
23.5402
23.8059
24.1242
24.5032
25.0027
25.6395
26.3685
27.1965
28.1369
29.2056
30.421
31.8005
33.3575
35.0928
36.9854
38.9834
22.7897
22.8255
22.8982
23.0092
23.1606
23.3547
23.5948
23.885
24.2312
24.642
25.1836
25.8746
26.6609
27.5453
28.5377
29.6494
30.8916
32.2734
33.798
35.4578
37.2292
39.0694
22.7737
22.8126
22.8915
23.012
23.176
23.3858
23.6445
23.9559
24.3249
24.7595
25.3351
26.0754
26.9112
27.8421
28.8752
30.0174
31.2749
32.6506
34.1415
35.7362
37.4117
39.133
22.762
22.8035
22.8876
23.0159
23.1902
23.4129
23.6867
24.0147
24.4003
24.8458
25.4512
26.2422
27.1211
28.0902
29.1545
30.3183
31.5837
32.9493
34.4089
35.9492
37.5493
39.1806
22.7499
22.7935
22.8817
23.0163
23.199
23.4319
23.7176
24.0589
24.4585
24.9185
25.5519
26.3804
27.2941
28.2934
29.3816
30.5603
31.8289
33.1834
34.6155
36.1119
37.6534
39.2164
22.7371
22.7824
22.8743
23.0143
23.2041
23.4458
23.7418
24.0946
24.5068
24.9811
25.6365
26.4938
27.4348
28.4576
29.5637
30.7528
32.022
33.3658
34.7749
36.2361
37.7324
39.2435
22.7241
22.7709
22.8659
23.0104
23.2063
23.4555
23.7603
24.123
24.5463
25.0331
25.706
26.5855
27.5477
28.5887
29.7083
30.9044
32.173
33.5073
34.8975
36.331
37.7924
39.264
22.7115
22.7596
22.8571
23.0055
23.2065
23.462
23.774
24.1451
24.5778
25.075
25.7618
26.6585
27.6371
28.6919
29.8215
31.0225
32.2898
33.616
34.9911
36.4032
37.8378
39.2795
22.6998
22.749
22.8486
23.0001
23.2053
23.4658
23.7839
24.1619
24.6021
25.1076
25.8052
26.7152
27.7062
28.7714
29.9083
31.1127
32.3786
33.6982
35.0617
36.4572
37.8717
39.291
22.6896
22.7396
22.8409
22.9949
23.2033
23.4678
23.7907
24.1739
24.6202
25.1321
25.8378
26.7576
27.7578
28.8306
29.9728
31.1795
32.4441
33.7587
35.1133
36.4968
37.8965
39.2994
22.6814
22.732
22.8345
22.9903
23.2011
23.4686
23.7949
24.1822
24.6328
25.1493
25.8607
26.7875
27.7942
28.8724
30.0183
31.2264
32.4901
33.801
35.1494
36.5243
37.9137
39.3053
22.6756
22.7266
22.8299
22.9869
23.1993
23.4688
23.7973
24.1872
24.6406
25.1601
25.8753
26.8065
27.8173
28.8989
30.047
31.2561
32.5191
33.8277
35.1721
36.5416
37.9246
39.309
22.6725
22.7238
22.8275
22.9851
23.1982
23.4686
23.7983
24.1894
24.6443
25.1653
25.8822
26.8155
27.8283
28.9116
30.0608
31.2703
32.533
33.8405
35.183
36.5499
37.9297
39.3107
</DataArray>
</CellData>
</Piece>
</RectilinearGrid>
</VTKFile>
