<?xml version="1.0"?>
<VTKFile type="RectilinearGrid" version="0.1" byte_order="LittleEndian">
<RectilinearGrid WholeExtent="0 22 0 20 0 0">
<Piece Extent="0 22 0 20 0 0">
<Coordinates>
<DataArray type="Float64" Name="XCoordinates" format="ascii">
0 0.0470772 0.0947193 0.142933 0.191725 0.241102 0.291069 0.341635 0.392805 0.444585 0.496981 0.55 0.603019 0.655415 0.707195 0.758365 0.808931 0.858898 0.908275 0.957067 1.00528 1.05292 1.1 
</DataArray>
<DataArray type="Float64" Name="YCoordinates" format="ascii">
0 0.0385824 0.0774735 0.116676 0.156191 0.196023 0.236173 0.276643 0.317436 0.358554 0.4 0.441446 0.482564 0.523357 0.563827 0.603977 0.643809 0.683324 0.722526 0.761418 0.8 
</DataArray>
<DataArray type="Float64" Name="YCoordinates" format="ascii">
0 
</DataArray>
</Coordinates>
<CellData Scalars="x">
<DataArray type="Float64" Name="0.004000" format="ascii">
23.1794
23.181
23.1843
23.1893
23.1963
23.2055
23.2172
23.2318
23.2499
23.2723
23.303
23.3433
23.3922
23.4521
23.5273
23.6249
23.7569
23.947
24.2481
24.8046
26.1208
30.4277
23.5387
23.5434
23.5532
23.5683
23.5892
23.6167
23.6517
23.6955
23.7496
23.8164
23.9078
24.0281
24.1734
24.351
24.5729
24.8586
25.2407
25.7787
26.5908
27.9325
30.3961
35.3194
23.8976
23.9055
23.9216
23.9466
23.9814
24.027
24.0849
24.1572
24.2465
24.3566
24.507
24.7044
24.9419
25.2305
25.5882
26.0426
26.6382
27.4494
28.6062
30.3377
33.0304
37.1891
24.254
24.2649
24.2873
24.322
24.3702
24.4332
24.5133
24.6131
24.7361
24.8875
25.0937
25.3635
25.6862
26.0752
26.5518
27.1472
27.9084
28.9075
30.254
32.1068
34.6614
38.0381
24.6057
24.6195
24.6479
24.6919
24.7529
24.8327
24.9338
25.0595
25.2142
25.4039
25.6615
25.9972
26.3961
26.8725
27.4482
28.154
29.0329
30.1448
31.569
33.399
35.7131
38.4927
24.9503
24.967
25.0011
25.0539
25.127
25.2225
25.3432
25.4929
25.6765
25.901
26.2047
26.5988
27.0638
27.6134
28.268
29.0551
30.0103
31.1781
32.61
34.353
36.4251
38.7702
25.2857
25.305
25.3445
25.4055
25.4899
25.5999
25.7386
25.91
26.1195
26.3745
26.7183
27.1627
27.6836
28.2925
29.0073
29.8505
30.8493
32.0343
33.4349
35.0697
36.9295
38.9559
25.6097
25.6314
25.6759
25.7445
25.8393
25.9625
26.1174
26.308
26.5399
26.8206
27.1979
27.6848
28.2517
28.9073
29.6661
30.5452
31.564
32.7415
34.0921
35.6182
37.3005
39.0882
25.9201
25.9441
25.9931
26.0687
26.1729
26.3081
26.4773
26.6846
26.9351
27.2362
27.6392
28.1615
28.766
29.4577
30.2472
31.1469
32.1695
33.3254
34.6193
36.0453
37.5815
39.1866
26.2149
26.2409
26.2941
26.376
26.4887
26.6345
26.8164
27.0379
27.3035
27.6189
28.0372
28.5902
29.2258
29.9449
30.755
31.6644
32.6804
33.8077
35.0449
36.3825
37.7991
39.2619
26.4702
26.4979
26.5546
26.6418
26.7615
26.9161
27.1083
27.3412
27.6181
27.9409
28.3806
28.968
29.6303
30.3701
31.1931
32.1046
33.1082
34.2045
35.3889
36.6504
37.9697
39.3205
26.6827
26.7118
26.7713
26.8627
26.988
27.1495
27.3499
27.5921
27.8792
28.214
28.6816
29.2963
29.9799
30.7347
31.565
32.4739
33.4623
34.5284
35.6658
36.8633
38.104
39.3664
26.8718
26.902
26.9639
27.0588
27.189
27.3564
27.5639
27.8143
28.1108
28.4568
28.9434
29.5784
30.278
31.0432
31.8769
32.7804
33.7531
34.7914
35.8882
37.0326
38.21
39.4024
27.037
27.0682
27.132
27.2301
27.3642
27.5368
27.7503
28.0077
28.3123
28.6678
29.168
29.8179
30.5291
31.3011
32.1356
33.0326
33.9902
35.0039
36.0664
37.1674
38.2939
39.4309
27.1781
27.2102
27.2757
27.3762
27.5138
27.6905
27.9091
28.1723
28.4836
28.8468
29.3568
30.0176
30.737
31.5132
32.3469
33.2372
34.1812
35.1739
36.208
37.2739
38.3599
39.4532
27.2952
27.3279
27.3948
27.4974
27.6377
27.8178
28.0405
28.3084
28.625
28.994
29.5114
30.1798
30.9049
31.6836
32.5158
33.3998
34.3321
35.3074
36.3187
37.3567
38.4112
39.4706
27.3883
27.4215
27.4894
27.5936
27.736
27.9189
28.1447
28.4163
28.737
29.1103
29.6329
30.3068
31.0356
31.8156
32.646
33.5245
34.4474
35.4091
36.4026
37.4194
38.4498
39.4836
27.4575
27.4912
27.5599
27.6652
27.8092
27.994
28.2221
28.4964
28.82
29.1963
29.7225
30.4
31.1312
31.9119
32.7407
33.6149
34.5306
35.4822
36.4628
37.4642
38.4774
39.4929
27.5033
27.5372
27.6064
27.7125
27.8575
28.0436
28.2732
28.5492
28.8747
29.253
29.7814
30.4611
31.1937
31.9746
32.8022
33.6736
34.5845
35.5294
36.5016
37.4931
38.4952
39.4989
27.526
27.56
27.6294
27.7359
27.8814
28.0681
28.2985
28.5753
28.9017
29.2809
29.8104
30.4912
31.2244
32.0054
32.8324
33.7022
34.6108
35.5525
36.5205
37.5071
38.5038
39.5018
</DataArray>
</CellData>
</Piece>
</RectilinearGrid>
</VTKFile>
