<?xml version="1.0"?>
<VTKFile type="RectilinearGrid" version="0.1" byte_order="LittleEndian">
<RectilinearGrid WholeExtent="0 22 0 20 0 0">
<Piece Extent="0 22 0 20 0 0">
<Coordinates>
<DataArray type="Float64" Name="XCoordinates" format="ascii">
0 0.0470772 0.0947193 0.142933 0.191725 0.241102 0.291069 0.341635 0.392805 0.444585 0.496981 0.55 0.603019 0.655415 0.707195 0.758365 0.808931 0.858898 0.908275 0.957067 1.00528 1.05292 1.1 
</DataArray>
<DataArray type="Float64" Name="YCoordinates" format="ascii">
0 0.0385824 0.0774735 0.116676 0.156191 0.196023 0.236173 0.276643 0.317436 0.358554 0.4 0.441446 0.482564 0.523357 0.563827 0.603977 0.643809 0.683324 0.722526 0.761418 0.8 
</DataArray>
<DataArray type="Float64" Name="YCoordinates" format="ascii">
0 
</DataArray>
</Coordinates>
<CellData Scalars="x">
<DataArray type="Float64" Name="0.005000" format="ascii">
23.18
23.1816
23.1849
23.1899
23.1969
23.2061
23.2177
23.2324
23.2504
23.2728
23.3034
23.3438
23.3926
23.4525
23.5277
23.6251
23.7571
23.9472
24.2483
24.8047
26.1209
30.4277
23.5405
23.5452
23.5549
23.57
23.5909
23.6184
23.6534
23.6971
23.7511
23.8178
23.9092
24.0294
24.1746
24.352
24.5739
24.8594
25.2414
25.7793
26.5913
27.9328
30.3963
35.3194
23.9006
23.9084
23.9245
23.9495
23.9842
24.0297
24.0876
24.1598
24.249
24.359
24.5093
24.7066
24.9439
25.2323
25.5898
26.044
26.6394
27.4504
28.6069
30.3383
33.0307
37.1893
24.2582
24.2691
24.2914
24.326
24.3741
24.4371
24.5171
24.6167
24.7397
24.8908
25.0969
25.3664
25.6889
26.0777
26.554
27.1491
27.9101
28.9089
30.2551
32.1076
34.6618
38.0383
24.611
24.6248
24.6531
24.6971
24.758
24.8376
24.9386
25.0642
25.2187
25.4082
25.6656
26.001
26.3996
26.8757
27.451
28.1565
29.0351
30.1466
31.5704
33.4
35.7137
38.4929
24.9567
24.9733
25.0074
25.0601
25.1331
25.2285
25.3491
25.4986
25.682
25.9062
26.2097
26.6034
27.0681
27.6173
28.2715
29.0581
30.0128
31.1803
32.6116
34.3542
36.4259
38.7704
25.2932
25.3125
25.3519
25.4129
25.4971
25.607
25.7455
25.9167
26.1259
26.3806
26.7242
27.1682
27.6886
28.2971
29.0114
29.8541
30.8524
32.0368
33.4368
35.0711
36.9303
38.9562
25.6183
25.6399
25.6843
25.7529
25.8475
25.9706
26.1253
26.3156
26.5472
26.8277
27.2046
27.691
28.2574
28.9125
29.6707
30.5493
31.5675
32.7443
34.0943
35.6198
37.3014
39.0885
25.9297
25.9536
26.0025
26.0781
26.1821
26.3171
26.4861
26.6931
26.9433
27.2441
27.6467
28.1684
28.7724
29.4635
30.2524
31.1515
32.1734
33.3285
34.6217
36.0471
37.5825
39.187
26.2254
26.2513
26.3045
26.3863
26.4988
26.6444
26.8261
27.0473
27.3125
27.6277
28.0454
28.5978
29.2329
29.9513
30.7607
31.6694
32.6847
33.8112
35.0477
36.3844
37.8003
39.2623
26.4815
26.5092
26.5658
26.6529
26.7724
26.9268
27.1187
27.3513
27.6279
27.9503
28.3895
28.9762
29.638
30.377
31.1993
32.11
33.1128
34.2083
35.3919
36.6525
37.971
39.3209
26.6948
26.7238
26.7831
26.8744
26.9996
27.1609
27.361
27.6029
27.8897
28.224
28.6912
29.3052
29.9881
30.7421
31.5716
32.4797
33.4673
34.5324
35.669
36.8655
38.1053
39.3668
26.8844
26.9146
26.9763
27.0712
27.2011
27.3684
27.5756
27.8256
28.1218
28.4674
28.9535
29.5878
30.2867
31.051
31.8839
32.7866
33.7584
34.7957
35.8916
37.0351
38.2115
39.4029
27.0501
27.0813
27.1451
27.2429
27.3769
27.5492
27.7625
28.0195
28.3237
28.6789
29.1785
29.8277
30.5382
31.3093
32.1429
33.0391
33.9957
35.0085
36.0699
37.1699
38.2954
39.4314
27.1917
27.2238
27.2892
27.3896
27.5269
27.7034
27.9217
28.1846
28.4955
28.8582
29.3678
30.0278
30.7464
31.5218
32.3546
33.244
34.187
35.1786
36.2117
37.2765
38.3615
39.4538
27.3092
27.3419
27.4086
27.5111
27.6512
27.8311
28.0534
28.3211
28.6373
29.0058
29.5227
30.1904
30.9146
31.6924
32.5237
33.4067
34.338
35.3123
36.3225
37.3595
38.4128
39.4711
27.4026
27.4358
27.5036
27.6077
27.7499
27.9325
28.158
28.4292
28.7495
29.1224
29.6444
30.3176
31.0455
31.8247
32.6541
33.5316
34.4534
35.4141
36.4065
37.4221
38.4515
39.4842
27.4721
27.5057
27.5743
27.6795
27.8233
28.0078
28.2356
28.5096
28.8327
29.2087
29.7343
30.411
31.1414
31.9211
32.7489
33.6222
34.5368
35.4873
36.4668
37.467
38.4791
39.4935
27.518
27.5519
27.621
27.7269
27.8717
28.0576
28.2869
28.5625
28.8876
29.2654
29.7932
30.4722
31.204
31.984
32.8106
33.6809
34.5907
35.5346
36.5056
37.4959
38.4969
39.4995
27.5408
27.5747
27.6441
27.7504
27.8957
28.0822
28.3122
28.5887
28.9147
29.2934
29.8223
30.5023
31.2348
32.0148
32.8408
33.7096
34.6171
35.5577
36.5245
37.51
38.5056
39.5024
</DataArray>
</CellData>
</Piece>
</RectilinearGrid>
</VTKFile>
