<?xml version="1.0"?>
<VTKFile type="RectilinearGrid" version="0.1" byte_order="LittleEndian">
<RectilinearGrid WholeExtent="0 22 0 20 0 0">
<Piece Extent="0 22 0 20 0 0">
<Coordinates>
<DataArray type="Float64" Name="XCoordinates" format="ascii">
0 0.0470772 0.0947193 0.142933 0.191725 0.241102 0.291069 0.341635 0.392805 0.444585 0.496981 0.55 0.603019 0.655415 0.707195 0.758365 0.808931 0.858898 0.908275 0.957067 1.00528 1.05292 1.1 
</DataArray>
<DataArray type="Float64" Name="YCoordinates" format="ascii">
0 0.0385824 0.0774735 0.116676 0.156191 0.196023 0.236173 0.276643 0.317436 0.358554 0.4 0.441446 0.482564 0.523357 0.563827 0.603977 0.643809 0.683324 0.722526 0.761418 0.8 
</DataArray>
<DataArray type="Float64" Name="YCoordinates" format="ascii">
0 
</DataArray>
</Coordinates>
<CellData Scalars="x">
<DataArray type="Float64" Name="0.002000" format="ascii">
23.1504
23.1521
23.1555
23.1609
23.1684
23.1782
23.1906
23.206
23.225
23.2484
23.2803
23.3223
23.3728
23.4345
23.5116
23.6111
23.7451
23.9373
24.2406
24.7992
26.1176
30.4266
23.4514
23.4565
23.4669
23.4831
23.5054
23.5347
23.5718
23.6179
23.6748
23.7447
23.8399
23.9648
24.1151
24.298
24.5256
24.8172
25.2054
25.7497
26.5681
27.9163
30.3863
35.3161
23.7523
23.7607
23.778
23.8048
23.8418
23.8903
23.9516
24.028
24.1219
24.2371
24.3938
24.599
24.8448
25.1423
25.5094
25.9737
26.5794
27.4011
28.5684
30.3107
33.0142
37.1838
24.051
24.0628
24.0868
24.1239
24.1752
24.2423
24.3272
24.4326
24.5621
24.7206
24.9356
25.2161
25.5505
25.952
26.4418
27.0509
27.8263
28.8399
30.2013
32.0691
34.6388
38.0306
24.3459
24.3608
24.3913
24.4383
24.5034
24.5883
24.6956
24.8284
24.9913
25.1902
25.4591
25.8086
26.2225
26.7148
27.3074
28.0307
28.9278
30.0583
31.5015
33.3508
35.6842
38.4831
24.635
24.6529
24.6895
24.7461
24.8241
24.9258
25.0539
25.2123
25.4059
25.6415
25.9589
26.3698
26.8531
27.422
28.0971
28.9055
29.8826
31.0732
32.5281
34.2944
36.39
38.7585
24.9166
24.9373
24.9796
25.045
25.1351
25.2524
25.3997
25.5812
25.8023
26.0703
26.4303
26.8945
27.4368
28.0684
28.8071
29.6753
30.6999
31.9113
33.3389
35.0011
36.8884
38.9422
25.1887
25.212
25.2597
25.3333
25.4346
25.5659
25.7306
25.9326
26.1776
26.4733
26.8691
27.3787
27.9701
28.6517
29.4377
30.3453
31.3935
32.6012
33.9826
35.54
37.2535
39.0726
25.4496
25.4754
25.528
25.6091
25.7205
25.8646
26.0447
26.2645
26.5296
26.8474
27.2714
27.8192
28.4511
29.1719
29.9919
30.9234
31.9789
33.1685
34.4969
35.9578
37.529
39.1692
25.6977
25.7256
25.7828
25.8706
25.9911
26.1467
26.3403
26.5755
26.8568
27.1904
27.6324
28.2138
28.8796
29.6307
30.4743
31.4186
32.4708
33.6352
34.9103
36.2862
37.7414
39.2427
25.9129
25.9427
26.0035
26.097
26.2251
26.3901
26.5947
26.8421
27.1356
27.477
27.9418
28.56
29.2551
30.0294
30.8887
31.838
32.8808
34.0173
35.2429
36.5459
37.9071
39.2997
26.0917
26.1229
26.1868
26.2848
26.4189
26.5913
26.8047
27.062
27.3663
27.72
28.2128
28.8599
29.5783
30.3699
31.2389
32.1883
33.2187
34.3279
35.5093
36.7513
38.0369
39.344
26.2504
26.2829
26.3493
26.4512
26.5904
26.7693
26.9903
27.2562
27.5703
27.9359
28.4481
29.1167
29.8528
30.6568
31.5314
32.4778
33.4949
34.5789
35.7223
36.914
38.1389
39.3788
26.3888
26.4224
26.491
26.5961
26.7397
26.924
27.1514
27.4249
27.7475
28.1231
28.6494
29.3341
30.0832
30.8957
31.7731
32.715
33.7192
34.7808
35.8922
37.0428
38.2192
39.406
26.5068
26.5413
26.6117
26.7196
26.8668
27.0556
27.2885
27.5682
27.8979
28.2814
28.8184
29.5148
30.2734
31.0916
31.9698
32.9067
33.8991
34.9417
36.0267
37.1442
38.2822
39.4274
26.6045
26.6398
26.7116
26.8217
26.9719
27.1644
27.4016
27.6864
28.0218
28.4115
28.9563
29.6613
30.4265
31.2484
32.1264
33.0584
34.0407
35.0675
36.1314
37.2227
38.3308
39.4438
26.6821
26.7179
26.7909
26.9027
27.0552
27.2506
27.4912
27.7799
28.1197
28.514
29.0644
29.7756
30.5454
31.3695
32.2468
33.1746
34.1486
35.163
36.2104
37.2819
38.3674
39.4562
26.7397
26.776
26.8498
26.9629
27.1171
27.3146
27.5577
27.8492
28.1921
28.5898
29.1441
29.8594
30.6322
31.4577
32.3341
33.2585
34.2263
35.2316
36.2671
37.3242
38.3935
39.465
26.7777
26.8142
26.8887
27.0026
27.1579
27.3567
27.6015
27.8948
28.2398
28.6395
29.1963
29.9141
30.6888
31.515
32.3908
33.3128
34.2764
35.2758
36.3035
37.3513
38.4102
39.4706
26.7965
26.8332
26.9079
27.0222
27.178
27.3775
27.6231
27.9173
28.2633
28.6641
29.222
29.9411
30.7166
31.5431
32.4185
33.3393
34.3009
35.2973
36.3212
37.3645
38.4183
39.4734
</DataArray>
</CellData>
</Piece>
</RectilinearGrid>
</VTKFile>
