<?xml version="1.0"?>
<VTKFile type="RectilinearGrid" version="0.1" byte_order="LittleEndian">
<RectilinearGrid WholeExtent="0 22 0 20 0 0">
<Piece Extent="0 22 0 20 0 0">
<Coordinates>
<DataArray type="Float64" Name="XCoordinates" format="ascii">
0 0.0470772 0.0947193 0.142933 0.191725 0.241102 0.291069 0.341635 0.392805 0.444585 0.496981 0.55 0.603019 0.655415 0.707195 0.758365 0.808931 0.858898 0.908275 0.957067 1.00528 1.05292 1.1 
</DataArray>
<DataArray type="Float64" Name="YCoordinates" format="ascii">
0 0.0385824 0.0774735 0.116676 0.156191 0.196023 0.236173 0.276643 0.317436 0.358554 0.4 0.441446 0.482564 0.523357 0.563827 0.603977 0.643809 0.683324 0.722526 0.761418 0.8 
</DataArray>
<DataArray type="Float64" Name="YCoordinates" format="ascii">
0 
</DataArray>
</Coordinates>
<CellData Scalars="x">
<DataArray type="Float64" Name="1000" format="ascii">
22.9107
22.9133
22.9187
22.9269
22.9381
22.9526
22.9706
22.9926
23.0191
23.0509
23.093
23.1476
23.2118
23.2882
23.3808
23.4965
23.6473
23.8568
24.1777
24.7542
26.0906
30.4177
22.7319
22.7398
22.7559
22.7805
22.8141
22.8575
22.9115
22.9773
23.0566
23.1517
23.2777
23.4405
23.632
23.859
24.1331
24.4733
24.9119
25.5081
26.3796
27.7814
30.3055
35.2892
22.5537
22.5669
22.5936
22.6344
22.6902
22.7621
22.8515
22.9606
23.0919
23.2491
23.4572
23.7254
24.04
24.4109
24.8555
25.4008
26.0906
26.9987
28.2543
30.0861
32.8795
37.1389
22.3774
22.3957
22.4327
22.4894
22.5669
22.6666
22.7906
22.9416
23.1233
23.3404
23.6273
23.996
24.4265
24.9306
25.5286
26.2509
27.1437
28.278
29.7626
31.7554
34.4507
37.968
22.2042
22.2274
22.2746
22.3466
22.4449
22.5714
22.7285
22.9197
23.1493
23.4232
23.7842
24.2468
24.7838
25.4075
26.1387
27.0069
28.0542
29.3393
30.9402
32.9493
35.4434
38.403
22.0355
22.0635
22.1202
22.2068
22.325
22.4769
22.6653
22.8942
23.1686
23.4954
23.9249
24.4734
25.1064
25.8349
26.6783
27.6627
28.8222
30.2003
31.8466
33.807
36.0978
38.6612
21.8727
21.9051
21.9708
22.0713
22.2081
22.3837
22.6012
22.8648
23.1803
23.5551
24.0469
24.673
25.3909
26.2096
27.1455
28.2198
29.4579
30.889
32.5408
34.4302
36.5461
38.8283
21.717
21.7536
21.8278
21.941
22.0951
22.2925
22.5365
22.8315
23.1836
23.6011
24.1484
24.8436
25.6359
26.5312
27.5422
28.6848
29.9766
31.4349
33.0721
34.8887
36.8631
38.9427
21.5699
21.6104
21.6923
21.8173
21.9871
22.2043
22.4721
22.7948
23.1784
23.6321
24.2279
24.9848
25.8419
26.8015
27.873
29.0672
30.3949
31.8646
33.4789
35.2296
37.0924
39.0239
21.4329
21.4768
21.5659
21.7014
21.8855
22.1204
22.4092
22.7557
23.1652
23.6463
24.2835
25.0969
26.0107
27.0243
28.1442
29.3772
30.7286
32.2009
33.7905
35.4851
37.2611
39.0829
21.3172
21.364
21.4589
21.6032
21.799
22.0484
22.3541
22.7193
23.1474
23.6409
24.3111
25.1816
26.145
27.2034
28.3618
29.6239
30.9911
32.4615
34.028
35.6768
37.386
39.1263
21.2176
21.2667
21.3663
21.5178
21.7229
21.9838
22.3029
22.683
23.1266
23.6356
24.3337
25.2458
26.2493
27.3439
28.5326
29.8164
31.194
32.6607
34.2074
35.8199
37.4784
39.1582
21.1261
21.1773
21.281
21.4385
21.6518
21.9226
22.2532
22.6461
23.1036
23.6281
24.3494
25.2935
26.3287
27.452
28.6643
29.9645
31.3491
32.8118
34.3423
35.9267
37.5468
39.1817
21.0437
21.0966
21.2038
21.3665
21.5866
21.8659
22.2063
22.6103
23.0801
23.6181
24.3586
25.3278
26.3879
27.5338
28.7645
30.0771
31.4667
32.9256
34.4433
36.0061
37.5975
39.1991
20.9711
21.0255
21.1356
21.3028
21.5286
21.8149
22.1636
22.5769
23.0571
23.6066
24.3625
25.3515
26.4312
27.5947
28.8395
30.1615
31.5546
33.0105
34.5183
36.0648
37.6349
39.2119
20.9093
20.9649
21.0774
21.2481
21.4786
21.7707
22.1262
22.5471
23.0358
23.5947
24.3627
25.367
26.4618
27.6388
28.8944
30.2235
31.6193
33.0728
34.5732
36.1078
37.6622
39.2213
20.8589
20.9155
21.0298
21.2033
21.4375
21.7341
22.0949
22.5219
23.0173
23.5834
24.3607
25.3765
26.4826
27.6697
28.9334
30.2678
31.6655
33.1174
34.6124
36.1383
37.6816
39.2279
20.8205
20.8778
20.9935
21.1691
21.406
21.706
22.0707
22.5022
23.0025
23.5739
24.3577
25.3818
26.496
27.6903
28.9597
30.2979
31.697
33.1477
34.6391
36.1591
37.6948
39.2324
20.7946
20.8523
20.969
21.1459
21.3847
21.6868
22.0541
22.4885
22.9921
23.5669
24.355
25.3844
26.5038
27.7026
28.9757
30.3163
31.7163
33.1664
34.6555
36.172
37.7029
39.2352
20.7815
20.8395
20.9566
21.1342
21.3738
21.6771
22.0457
22.4815
22.9866
23.5631
24.3533
25.3853
26.5072
27.7083
28.9832
30.3249
31.7254
33.1752
34.6633
36.178
37.7067
39.2365
</DataArray>
</CellData>
</Piece>
</RectilinearGrid>
</VTKFile>
