<?xml version="1.0"?>
<VTKFile type="RectilinearGrid" version="0.1" byte_order="LittleEndian">
<RectilinearGrid WholeExtent="0 22 0 20 0 0">
<Piece Extent="0 22 0 20 0 0">
<Coordinates>
<DataArray type="Float64" Name="XCoordinates" format="ascii">
0 0.0470772 0.0947193 0.142933 0.191725 0.241102 0.291069 0.341635 0.392805 0.444585 0.496981 0.55 0.603019 0.655415 0.707195 0.758365 0.808931 0.858898 0.908275 0.957067 1.00528 1.05292 1.1 
</DataArray>
<DataArray type="Float64" Name="YCoordinates" format="ascii">
0 0.0385824 0.0774735 0.116676 0.156191 0.196023 0.236173 0.276643 0.317436 0.358554 0.4 0.441446 0.482564 0.523357 0.563827 0.603977 0.643809 0.683324 0.722526 0.761418 0.8 
</DataArray>
<DataArray type="Float64" Name="YCoordinates" format="ascii">
0 
</DataArray>
</Coordinates>
<CellData Scalars="x">
<DataArray type="Float64" Name="2000" format="ascii">
23.1388
23.1406
23.1441
23.1497
23.1573
23.1673
23.18
23.1957
23.2151
23.2389
23.2713
23.3139
23.3651
23.4275
23.5053
23.6056
23.7404
23.9335
24.2376
24.797
26.1163
30.4262
23.4167
23.422
23.4327
23.4492
23.4721
23.5021
23.54
23.5871
23.6451
23.7162
23.8129
23.9397
24.092
24.277
24.5069
24.8008
25.1913
25.7381
26.5591
27.9098
30.3825
35.3148
23.6945
23.7032
23.7209
23.7484
23.7864
23.836
23.8987
23.9766
24.0724
24.1896
24.3489
24.5571
24.8062
25.1073
25.4781
25.9463
26.556
27.3818
28.5534
30.3
33.0078
37.1816
23.9704
23.9824
24.0071
24.0451
24.0978
24.1665
24.2533
24.3609
24.4929
24.6543
24.8728
25.1576
25.4967
25.9031
26.3981
27.0126
27.7936
28.8131
30.1803
32.0541
34.6298
38.0276
24.2427
24.258
24.2893
24.3376
24.4043
24.4912
24.6009
24.7366
24.9028
25.1053
25.3787
25.7337
26.1535
26.6522
27.2514
27.9817
28.886
30.024
31.4747
33.3316
35.6727
38.4793
24.5098
24.5282
24.5658
24.6238
24.7038
24.8079
24.939
25.1008
25.2983
25.5384
25.8613
26.2788
26.7694
27.346
28.0292
28.846
29.8319
31.0315
32.4955
34.2712
36.3761
38.7538
24.7699
24.7912
24.8347
24.9018
24.9942
25.1143
25.265
25.4506
25.6762
25.9495
26.3159
26.7879
27.3387
27.9794
28.7276
29.6056
30.6405
31.8625
33.3008
34.9738
36.872
38.9368
25.0214
25.0454
25.0944
25.1699
25.2738
25.4084
25.5769
25.7835
26.0337
26.3353
26.7385
27.257
27.8582
28.5501
29.347
30.2659
31.3258
32.5455
33.9391
35.5089
37.2349
39.0664
25.2627
25.2891
25.3432
25.4265
25.5407
25.6884
25.8728
26.0977
26.3685
26.693
27.1253
27.6832
28.3261
29.0583
29.8905
30.8346
31.9032
33.1062
34.4482
35.923
37.5082
39.1622
25.4922
25.5209
25.5796
25.6698
25.7935
25.9529
26.1512
26.3918
26.6794
27.0201
27.4717
28.0643
28.7421
29.5058
30.3627
31.3209
32.3875
33.5666
34.8568
36.2479
37.7185
39.2351
25.6914
25.7221
25.7846
25.8806
26.012
26.1811
26.3907
26.6439
26.9439
27.2927
27.7675
28.3979
29.106
29.894
30.7677
31.7321
32.7905
33.943
35.1848
36.5044
37.8822
39.2914
25.8568
25.889
25.9546
26.0552
26.1928
26.3696
26.5881
26.8514
27.1625
27.5238
28.0266
28.6865
29.4187
30.2249
31.1094
32.0748
33.1219
34.2482
35.4471
36.7068
38.0102
39.3352
26.0035
26.0369
26.1052
26.2098
26.3527
26.536
26.7623
27.0345
27.3556
27.7289
28.2513
28.9333
29.6839
30.5033
31.3942
32.3576
33.3923
34.4944
35.6564
36.8668
38.1106
39.3694
26.1312
26.1658
26.2363
26.3443
26.4916
26.6805
26.9135
27.1934
27.5232
27.9066
28.4434
29.1419
29.9061
30.7347
31.6291
32.5888
33.6115
34.6922
35.823
36.9933
38.1895
39.3962
26.2401
26.2756
26.3479
26.4587
26.6098
26.8034
27.0419
27.3281
27.6652
28.0568
28.6044
29.3151
30.0892
30.9241
31.82
32.7754
33.7871
34.8494
35.9546
37.0926
38.2513
39.4171
26.3301
26.3664
26.4402
26.5533
26.7074
26.9048
27.1478
27.4392
27.7821
28.1801
28.7357
29.4553
30.2364
31.0755
31.9717
32.9228
33.925
34.9722
36.0569
37.1695
38.2989
39.4332
26.4015
26.4384
26.5134
26.6283
26.7848
26.9851
27.2316
27.527
27.8744
28.2772
28.8386
29.5645
30.3506
31.1923
32.0882
33.0355
34.0299
35.0653
36.1341
37.2273
38.3347
39.4453
26.4545
26.4918
26.5677
26.6839
26.8421
27.0446
27.2937
27.592
27.9426
28.3488
28.9143
29.6446
30.4339
31.2772
32.1726
33.1169
34.1054
35.132
36.1893
37.2686
38.3601
39.4539
26.4895
26.527
26.6035
26.7205
26.8799
27.0838
27.3346
27.6348
27.9875
28.3958
28.9639
29.6968
30.4882
31.3324
32.2273
33.1695
34.1541
35.175
36.2248
37.295
38.3764
39.4594
26.5067
26.5444
26.6212
26.7386
26.8986
27.1032
27.3547
27.6559
28.0096
28.419
28.9882
29.7225
30.5148
31.3594
32.2541
33.1951
34.1778
35.1959
36.242
37.3079
38.3844
39.462
</DataArray>
</CellData>
</Piece>
</RectilinearGrid>
</VTKFile>
