<?xml version="1.0"?>
<VTKFile type="RectilinearGrid" version="0.1" byte_order="LittleEndian">
<RectilinearGrid WholeExtent="0 22 0 20 0 0">
<Piece Extent="0 22 0 20 0 0">
<Coordinates>
<DataArray type="Float64" Name="XCoordinates" format="ascii">
0 0.0470772 0.0947193 0.142933 0.191725 0.241102 0.291069 0.341635 0.392805 0.444585 0.496981 0.55 0.603019 0.655415 0.707195 0.758365 0.808931 0.858898 0.908275 0.957067 1.00528 1.05292 1.1 
</DataArray>
<DataArray type="Float64" Name="YCoordinates" format="ascii">
0 0.0385824 0.0774735 0.116676 0.156191 0.196023 0.236173 0.276643 0.317436 0.358554 0.4 0.441446 0.482564 0.523357 0.563827 0.603977 0.643809 0.683324 0.722526 0.761418 0.8 
</DataArray>
<DataArray type="Float64" Name="YCoordinates" format="ascii">
0 
</DataArray>
</Coordinates>
<CellData Scalars="x">
<DataArray type="Float64" Name="3000" format="ascii">
23.1738
23.1754
23.1787
23.1838
23.1909
23.2002
23.2121
23.2268
23.2451
23.2677
23.2986
23.3393
23.3884
23.4487
23.5243
23.6222
23.7546
23.9451
24.2466
24.8035
26.1202
30.4275
23.5218
23.5266
23.5365
23.5518
23.573
23.6009
23.6363
23.6805
23.7351
23.8025
23.8947
24.0159
24.1621
24.3407
24.5638
24.8506
25.2338
25.7731
26.5864
27.9294
30.3942
35.3187
23.8695
23.8775
23.8938
23.9192
23.9544
24.0005
24.0591
24.1322
24.2224
24.3334
24.4851
24.684
24.9231
25.2135
25.573
26.0293
26.6268
27.4401
28.5989
30.3325
33.0273
37.1881
24.2148
24.2258
24.2485
24.2837
24.3324
24.3963
24.4773
24.5781
24.7025
24.8552
25.0631
25.3349
25.6599
26.0514
26.5305
27.1285
27.8925
28.8944
30.2438
32.0995
34.657
38.0367
24.5554
24.5695
24.5983
24.6428
24.7046
24.7854
24.8877
25.0148
25.1711
25.3625
25.6224
25.9607
26.3625
26.842
27.4209
28.1301
29.0126
30.1281
31.5559
33.3897
35.7075
38.4908
24.8893
24.9062
24.9408
24.9943
25.0684
25.1651
25.2872
25.4386
25.6242
25.8507
26.1572
26.5544
27.023
27.5763
28.2349
29.0261
29.9856
31.1578
32.5941
34.3417
36.4183
38.7679
25.2143
25.2338
25.2739
25.3358
25.4213
25.5327
25.673
25.8464
26.0581
26.3156
26.6626
27.1108
27.6358
28.2491
28.9686
29.8166
30.8204
32.0105
33.4163
35.0564
36.9216
38.9532
25.5282
25.5502
25.5953
25.665
25.761
25.8858
26.0425
26.2354
26.4698
26.7534
27.1343
27.6255
28.1972
28.8579
29.6219
30.5066
31.531
32.7143
34.0709
35.6031
37.2914
39.0852
25.8291
25.8534
25.9031
25.9798
26.0854
26.2223
26.3936
26.6033
26.8566
27.161
27.5681
28.0952
28.7051
29.4024
30.1978
31.1037
32.1326
33.295
34.5956
36.0284
37.5713
39.1832
26.1148
26.1412
26.1951
26.2782
26.3924
26.5401
26.7243
26.9484
27.217
27.536
27.9588
28.5174
29.1588
29.8841
30.7007
31.6168
32.6399
33.7743
35.0189
36.3638
37.788
39.2582
26.3623
26.3905
26.4479
26.5364
26.6577
26.8143
27.0089
27.2446
27.5248
27.8511
28.2957
28.889
29.5577
30.3042
31.1342
32.053
33.0642
34.1683
35.3607
36.6301
37.9576
39.3165
26.5684
26.5979
26.6582
26.7508
26.8779
27.0415
27.2444
27.4895
27.78
28.1184
28.5909
29.2118
29.9022
30.6641
31.5019
32.4186
33.4152
34.4896
35.6355
36.8416
38.091
39.362
26.7515
26.7822
26.8449
26.9413
27.0731
27.2428
27.4529
27.7063
28.0062
28.356
28.8476
29.4891
30.1957
30.9684
31.81
32.7219
33.7032
34.7503
35.8561
37.0097
38.1962
39.3979
26.9115
26.9432
27.008
27.1074
27.2434
27.4182
27.6344
27.8949
28.203
28.5624
29.0676
29.7243
30.4428
31.2226
32.0654
32.9712
33.9378
34.9608
36.0327
37.1433
38.2795
39.4261
27.0482
27.0807
27.1472
27.2492
27.3886
27.5677
27.789
28.0554
28.3703
28.7374
29.2526
29.9203
30.6472
31.4316
32.274
33.1733
34.1267
35.129
36.1729
37.2488
38.3449
39.4482
27.1615
27.1947
27.2626
27.3666
27.5088
27.6914
27.9168
28.1881
28.5083
28.8813
29.404
30.0795
30.8123
31.5994
32.4404
33.3337
34.2757
35.261
36.2824
37.3308
38.3956
39.4654
27.2516
27.2854
27.3542
27.4599
27.6043
27.7896
28.0182
28.2932
28.6175
28.9949
29.5229
30.204
30.9407
31.7293
32.5688
33.4568
34.3896
35.3615
36.3654
37.3928
38.4339
39.4783
27.3186
27.3528
27.4225
27.5293
27.6753
27.8625
28.0935
28.3712
28.6985
29.0789
29.6106
30.2954
31.0347
31.824
32.662
33.546
34.4717
35.4337
36.4249
37.4371
38.4612
39.4875
27.3629
27.3973
27.4675
27.5751
27.7221
27.9107
28.1432
28.4226
28.7518
29.1342
29.6681
30.3553
31.096
31.8857
32.7226
33.6037
34.5249
35.4803
36.4632
37.4656
38.4787
39.4934
27.3848
27.4193
27.4898
27.5978
27.7453
27.9345
28.1678
28.448
28.7781
29.1615
29.6965
30.3847
31.1262
31.916
32.7523
33.632
34.5508
35.5031
36.4819
37.4795
38.4873
39.4963
</DataArray>
</CellData>
</Piece>
</RectilinearGrid>
</VTKFile>
