<?xml version="1.0"?>
<VTKFile type="RectilinearGrid" version="0.1" byte_order="LittleEndian">
<RectilinearGrid WholeExtent="0 22 0 20 0 0">
<Piece Extent="0 22 0 20 0 0">
<Coordinates>
<DataArray type="Float64" Name="XCoordinates" format="ascii">
0 0.0470772 0.0947193 0.142933 0.191725 0.241102 0.291069 0.341635 0.392805 0.444585 0.496981 0.55 0.603019 0.655415 0.707195 0.758365 0.808931 0.858898 0.908275 0.957067 1.00528 1.05292 1.1 
</DataArray>
<DataArray type="Float64" Name="YCoordinates" format="ascii">
0 0.0385824 0.0774735 0.116676 0.156191 0.196023 0.236173 0.276643 0.317436 0.358554 0.4 0.441446 0.482564 0.523357 0.563827 0.603977 0.643809 0.683324 0.722526 0.761418 0.8 
</DataArray>
<DataArray type="Float64" Name="YCoordinates" format="ascii">
0 
</DataArray>
</Coordinates>
<CellData Scalars="x">
<DataArray type="Float64" Name="4000" format="ascii">
23.1792
23.1807
23.184
23.189
23.1961
23.2053
23.217
23.2316
23.2497
23.2721
23.3028
23.3431
23.392
23.4519
23.5272
23.6247
23.7567
23.9469
24.248
24.8045
26.1208
30.4277
23.5379
23.5426
23.5524
23.5675
23.5884
23.616
23.651
23.6948
23.7489
23.8157
23.9072
24.0275
24.1729
24.3505
24.5725
24.8582
25.2404
25.7785
26.5906
27.9323
30.396
35.3193
23.8963
23.9041
23.9203
23.9453
23.9801
24.0257
24.0836
24.156
24.2453
24.3555
24.506
24.7035
24.941
25.2297
25.5875
26.042
26.6376
27.449
28.6058
30.3375
33.0302
37.1891
24.2521
24.2631
24.2855
24.3202
24.3683
24.4315
24.5116
24.6114
24.7345
24.8859
25.0922
25.3621
25.6849
26.0741
26.5508
27.1463
27.9077
28.9069
30.2535
32.1065
34.6612
38.0381
24.6033
24.6171
24.6455
24.6896
24.7506
24.8304
24.9316
25.0573
25.2121
25.4019
25.6596
25.9954
26.3945
26.871
27.4469
28.1528
29.0319
30.144
31.5684
33.3986
35.7128
38.4926
24.9474
24.964
24.9982
25.051
25.1242
25.2197
25.3405
25.4903
25.674
25.8985
26.2024
26.5966
27.0619
27.6116
28.2664
29.0537
30.0091
31.1772
32.6092
34.3525
36.4248
38.7701
25.2823
25.3016
25.3411
25.4022
25.4866
25.5967
25.7355
25.9069
26.1165
26.3716
26.7156
27.1602
27.6813
28.2904
29.0054
29.8489
30.8479
32.0331
33.434
35.0691
36.9291
38.9558
25.6058
25.6275
25.672
25.7407
25.8355
25.9588
26.1138
26.3045
26.5365
26.8174
27.1948
27.6819
28.2491
28.905
29.664
30.5434
31.5624
32.7402
34.091
35.6175
37.3
39.0881
25.9157
25.9397
25.9888
26.0645
26.1687
26.3039
26.4733
26.6806
26.9313
27.2326
27.6358
28.1583
28.7631
29.455
30.2448
31.1449
32.1677
33.3239
34.6181
36.0445
37.581
39.1865
26.2101
26.2361
26.2893
26.3713
26.4841
26.63
26.812
27.0336
27.2993
27.615
28.0334
28.5867
29.2226
29.942
30.7524
31.6621
32.6785
33.8061
35.0437
36.3816
37.7986
39.2618
26.465
26.4927
26.5495
26.6367
26.7565
26.9112
27.1035
27.3366
27.6136
27.9366
28.3765
28.9642
29.6268
30.3669
31.1903
32.1021
33.1061
34.2027
35.3876
36.6494
37.9691
39.3203
26.6772
26.7063
26.7658
26.8573
26.9827
27.1443
27.3448
27.5872
27.8745
28.2094
28.6773
29.2922
29.9762
30.7313
31.562
32.4712
33.4601
34.5265
35.6643
36.8622
38.1033
39.3662
26.866
26.8963
26.9581
27.0532
27.1834
27.351
27.5586
27.8091
28.1057
28.452
28.9388
29.5741
30.2741
31.0396
31.8736
32.7776
33.7507
34.7894
35.8866
37.0315
38.2093
39.4022
27.0309
27.0622
27.1261
27.2242
27.3584
27.5311
27.7447
28.0023
28.307
28.6628
29.1631
29.8134
30.5249
31.2973
32.1322
33.0297
33.9877
35.0019
36.0648
37.1662
38.2932
39.4307
27.1719
27.204
27.2695
27.3701
27.5078
27.6846
27.9033
28.1667
28.4782
28.8415
29.3518
30.0129
30.7326
31.5093
32.3434
33.2342
34.1786
35.1718
36.2063
37.2727
38.3592
39.453
27.2888
27.3215
27.3884
27.4911
27.6315
27.8118
28.0345
28.3027
28.6194
28.9886
29.5062
30.175
30.9004
31.6795
32.5122
33.3966
34.3294
35.3052
36.3169
37.3555
38.4104
39.4703
27.3817
27.415
27.4829
27.5872
27.7297
27.9127
28.1386
28.4104
28.7312
29.1047
29.6276
30.3018
31.031
31.8114
32.6423
33.5213
34.4446
35.4068
36.4008
37.4181
38.449
39.4833
27.4509
27.4845
27.5533
27.6587
27.8028
27.9877
28.216
28.4904
28.8141
29.1907
29.7171
30.395
31.1266
31.9077
32.7369
33.6116
34.5278
35.4799
36.461
37.4629
38.4767
39.4927
27.4966
27.5305
27.5997
27.7059
27.851
28.0372
28.267
28.5431
28.8688
29.2472
29.7759
30.456
31.189
31.9704
32.7984
33.6702
34.5816
35.5271
36.4997
37.4917
38.4944
39.4986
27.5192
27.5532
27.6227
27.7293
27.8749
28.0617
28.2922
28.5692
28.8957
29.2752
29.8049
30.4861
31.2197
32.0011
32.8285
33.6989
34.6079
35.5501
36.5186
37.5058
38.503
39.5015
</DataArray>
</CellData>
</Piece>
</RectilinearGrid>
</VTKFile>
