<?xml version="1.0"?>
<VTKFile type="RectilinearGrid" version="0.1" byte_order="LittleEndian">
<RectilinearGrid WholeExtent="0 22 0 20 0 0">
<Piece Extent="0 22 0 20 0 0">
<Coordinates>
<DataArray type="Float64" Name="XCoordinates" format="ascii">
0 0.0470772 0.0947193 0.142933 0.191725 0.241102 0.291069 0.341635 0.392805 0.444585 0.496981 0.55 0.603019 0.655415 0.707195 0.758365 0.808931 0.858898 0.908275 0.957067 1.00528 1.05292 1.1 
</DataArray>
<DataArray type="Float64" Name="YCoordinates" format="ascii">
0 0.0385824 0.0774735 0.116676 0.156191 0.196023 0.236173 0.276643 0.317436 0.358554 0.4 0.441446 0.482564 0.523357 0.563827 0.603977 0.643809 0.683324 0.722526 0.761418 0.8 
</DataArray>
<DataArray type="Float64" Name="YCoordinates" format="ascii">
0 
</DataArray>
</Coordinates>
<CellData Scalars="x">
<DataArray type="Float64" Name="5000" format="ascii">
23.18
23.1816
23.1848
23.1898
23.1968
23.206
23.2177
23.2323
23.2504
23.2728
23.3034
23.3437
23.3926
23.4524
23.5276
23.6251
23.7571
23.9472
24.2482
24.8047
26.1209
30.4277
23.5403
23.5451
23.5548
23.5699
23.5908
23.6183
23.6533
23.6969
23.751
23.8177
23.9091
24.0293
24.1745
24.352
24.5738
24.8594
25.2413
25.7793
26.5912
27.9328
30.3962
35.3194
23.9004
23.9082
23.9243
23.9493
23.984
24.0295
24.0874
24.1596
24.2489
24.3588
24.5092
24.7064
24.9438
25.2322
25.5897
26.0439
26.6393
27.4504
28.6069
30.3383
33.0307
37.1892
24.2579
24.2688
24.2911
24.3258
24.3738
24.4368
24.5168
24.6165
24.7394
24.8906
25.0967
25.3662
25.6887
26.0775
26.5539
27.149
27.91
28.9088
30.255
32.1075
34.6618
38.0383
24.6106
24.6244
24.6528
24.6967
24.7576
24.8373
24.9383
25.0638
25.2184
25.4079
25.6653
26.0007
26.3994
26.8754
27.4508
28.1563
29.0349
30.1464
31.5703
33.3999
35.7136
38.4929
24.9563
24.9729
25.007
25.0597
25.1327
25.2281
25.3487
25.4982
25.6816
25.9059
26.2094
26.6031
27.0678
27.617
28.2713
29.0579
30.0127
31.1801
32.6115
34.3541
36.4258
38.7704
25.2927
25.3119
25.3514
25.4123
25.4966
25.6065
25.745
25.9162
26.1255
26.3802
26.7238
27.1678
27.6883
28.2967
29.0111
29.8538
30.8522
32.0366
33.4367
35.071
36.9303
38.9561
25.6177
25.6393
25.6837
25.7523
25.8469
25.97
26.1247
26.3151
26.5467
26.8272
27.2041
27.6905
28.257
28.9122
29.6704
30.549
31.5672
32.7441
34.0941
35.6197
37.3014
39.0885
25.929
25.9529
26.0019
26.0774
26.1815
26.3164
26.4855
26.6925
26.9427
27.2436
27.6462
28.1679
28.7719
29.4631
30.252
31.1512
32.1731
33.3283
34.6216
36.047
37.5825
39.187
26.2246
26.2506
26.3037
26.3856
26.4981
26.6437
26.8254
27.0467
27.3119
27.627
28.0448
28.5973
29.2324
29.9509
30.7603
31.669
32.6844
33.8109
35.0475
36.3843
37.8002
39.2623
26.4807
26.5084
26.565
26.6521
26.7716
26.926
27.118
27.3506
27.6272
27.9497
28.3889
28.9757
29.6374
30.3766
31.1989
32.1096
33.1125
34.208
35.3917
36.6523
37.9709
39.3209
26.6939
26.7229
26.7823
26.8736
26.9987
27.1601
27.3602
27.6021
27.8889
28.2233
28.6905
29.3045
29.9875
30.7416
31.5712
32.4793
33.4669
34.5322
35.6687
36.8654
38.1052
39.3668
26.8835
26.9137
26.9755
27.0703
27.2003
27.3675
27.5748
27.8248
28.121
28.4667
28.9528
29.5871
30.2861
31.0505
31.8834
32.7862
33.758
34.7954
35.8913
37.0349
38.2114
39.4029
27.0492
27.0804
27.1441
27.242
27.376
27.5484
27.7616
28.0187
28.3229
28.6781
29.1778
29.827
30.5375
31.3087
32.1424
33.0386
33.9954
35.0081
36.0697
37.1697
38.2953
39.4314
27.1908
27.2228
27.2882
27.3886
27.526
27.7025
27.9208
28.1838
28.4947
28.8574
29.367
30.0271
30.7457
31.5212
32.3541
33.2435
34.1866
35.1783
36.2114
37.2763
38.3614
39.4537
27.3082
27.3409
27.4077
27.5101
27.6502
27.8302
28.0525
28.3202
28.6364
29.005
29.5219
30.1896
30.9139
31.6918
32.5231
33.4062
34.3376
35.312
36.3222
37.3593
38.4127
39.4711
27.4016
27.4348
27.5026
27.6067
27.7489
27.9315
28.157
28.4283
28.7486
29.1215
29.6436
30.3168
31.0448
31.824
32.6535
33.5311
34.453
35.4137
36.4062
37.4219
38.4514
39.4841
27.4711
27.5047
27.5733
27.6785
27.8223
28.0068
28.2347
28.5086
28.8318
29.2078
29.7334
30.4102
31.1407
31.9205
32.7484
33.6217
34.5364
35.4869
36.4665
37.4668
38.479
39.4934
27.517
27.5509
27.6199
27.7259
27.8707
28.0566
28.2859
28.5616
28.8867
29.2645
29.7924
30.4714
31.2033
31.9833
32.81
33.6804
34.5903
35.5342
36.5053
37.4957
38.4968
39.4994
27.5397
27.5737
27.643
27.7494
27.8947
28.0812
28.3113
28.5878
28.9137
29.2926
29.8215
30.5016
31.234
32.0142
32.8402
33.7091
34.6167
35.5573
36.5243
37.5098
38.5054
39.5023
</DataArray>
</CellData>
</Piece>
</RectilinearGrid>
</VTKFile>
