<?xml version="1.0"?>
<VTKFile type="RectilinearGrid" version="0.1" byte_order="LittleEndian">
<RectilinearGrid WholeExtent="0 22 0 20 0 0">
<Piece Extent="0 22 0 20 0 0">
<Coordinates>
<DataArray type="Float64" Name="XCoordinates" format="ascii">
0 0.0470772 0.0947193 0.142933 0.191725 0.241102 0.291069 0.341635 0.392805 0.444585 0.496981 0.55 0.603019 0.655415 0.707195 0.758365 0.808931 0.858898 0.908275 0.957067 1.00528 1.05292 1.1 
</DataArray>
<DataArray type="Float64" Name="YCoordinates" format="ascii">
0 0.0385824 0.0774735 0.116676 0.156191 0.196023 0.236173 0.276643 0.317436 0.358554 0.4 0.441446 0.482564 0.523357 0.563827 0.603977 0.643809 0.683324 0.722526 0.761418 0.8 
</DataArray>
<DataArray type="Float64" Name="YCoordinates" format="ascii">
0 
</DataArray>
</Coordinates>
<CellData Scalars="x">
<DataArray type="Float64" Name="6000" format="ascii">
23.1801
23.1817
23.1849
23.19
23.197
23.2061
23.2178
23.2324
23.2505
23.2729
23.3035
23.3438
23.3927
23.4525
23.5277
23.6252
23.7571
23.9472
24.2483
24.8047
26.1209
30.4277
23.5407
23.5455
23.5552
23.5702
23.5912
23.6186
23.6536
23.6973
23.7513
23.818
23.9094
24.0296
24.1748
24.3522
24.574
24.8596
25.2415
25.7794
26.5913
27.9329
30.3963
35.3194
23.901
23.9088
23.925
23.9499
23.9846
24.0301
24.088
24.1602
24.2494
24.3593
24.5096
24.7069
24.9442
25.2326
25.59
26.0442
26.6396
27.4506
28.6071
30.3384
33.0308
37.1893
24.2587
24.2696
24.292
24.3266
24.3747
24.4377
24.5176
24.6173
24.7402
24.8913
25.0974
25.3669
25.6893
26.0781
26.5544
27.1494
27.9103
28.9091
30.2552
32.1077
34.6619
38.0383
24.6117
24.6255
24.6539
24.6978
24.7587
24.8384
24.9393
25.0648
25.2194
25.4088
25.6662
26.0015
26.4001
26.8761
27.4515
28.1568
29.0354
30.1468
31.5706
33.4002
35.7138
38.4929
24.9576
24.9743
25.0083
25.061
25.134
25.2294
25.3499
25.4994
25.6828
25.907
26.2104
26.6041
27.0687
27.6178
28.272
29.0586
30.0132
31.1806
32.6119
34.3544
36.426
38.7704
25.2943
25.3135
25.353
25.4139
25.4981
25.608
25.7465
25.9176
26.1269
26.3815
26.725
27.169
27.6893
28.2977
29.012
29.8546
30.8528
32.0371
33.4371
35.0713
36.9305
38.9562
25.6195
25.6411
25.6855
25.7541
25.8487
25.9717
26.1264
26.3167
26.5483
26.8287
27.2055
27.6919
28.2582
28.9133
29.6714
30.5499
31.568
32.7447
34.0946
35.6201
37.3016
39.0886
25.931
25.9549
26.0039
26.0794
26.1834
26.3184
26.4873
26.6943
26.9445
27.2452
27.6478
28.1694
28.7733
29.4643
30.2531
31.1521
32.1739
33.329
34.6221
36.0473
37.5827
39.187
26.2269
26.2528
26.3059
26.3878
26.5003
26.6458
26.8274
27.0486
27.3138
27.6289
28.0465
28.5989
29.2339
29.9522
30.7615
31.6701
32.6853
33.8117
35.0481
36.3847
37.8005
39.2624
26.4831
26.5108
26.5674
26.6544
26.774
26.9283
27.1202
27.3528
27.6293
27.9517
28.3908
28.9774
29.639
30.378
31.2002
32.1108
33.1135
34.2088
35.3923
36.6528
37.9712
39.321
26.6965
26.7255
26.7848
26.8761
27.0012
27.1625
27.3626
27.6044
27.8911
28.2254
28.6925
29.3064
29.9893
30.7432
31.5726
32.4805
33.468
34.533
35.6694
36.8659
38.1055
39.3669
26.8862
26.9164
26.9781
27.0729
27.2028
27.3701
27.5772
27.8272
28.1233
28.4689
28.9549
29.5891
30.2879
31.0521
31.8849
32.7875
33.7591
34.7963
35.892
37.0354
38.2117
39.403
27.052
27.0832
27.1469
27.2448
27.3787
27.551
27.7642
28.0212
28.3254
28.6805
29.18
29.8291
30.5394
31.3105
32.144
33.04
33.9965
35.0091
36.0704
37.1703
38.2956
39.4315
27.1937
27.2257
27.2911
27.3915
27.5288
27.7053
27.9235
28.1864
28.4972
28.8599
29.3693
30.0292
30.7477
31.523
32.3557
33.2449
34.1878
35.1793
36.2122
37.2769
38.3618
39.4539
27.3112
27.3439
27.4106
27.513
27.6531
27.833
28.0553
28.3229
28.639
29.0075
29.5243
30.1919
30.916
31.6937
32.5248
33.4077
34.3388
35.313
36.323
37.3598
38.413
39.4712
27.4046
27.4378
27.5056
27.6097
27.7518
27.9344
28.1599
28.4311
28.7513
29.1241
29.6461
30.3191
31.0469
31.8259
32.6553
33.5327
34.4543
35.4148
36.407
37.4225
38.4517
39.4842
27.4742
27.5078
27.5763
27.6815
27.8253
28.0098
28.2376
28.5114
28.8346
29.2104
29.7359
30.4126
31.1428
31.9224
32.7501
33.6232
34.5377
35.488
36.4673
37.4675
38.4794
39.4936
27.5201
27.554
27.623
27.729
27.8738
28.0595
28.2888
28.5644
28.8894
29.2672
29.7949
30.4738
31.2055
31.9853
32.8118
33.6819
34.5916
35.5353
36.5062
37.4963
38.4972
39.4996
27.5429
27.5768
27.6462
27.7525
27.8978
28.0842
28.3142
28.5906
28.9165
29.2952
29.824
30.5039
31.2362
32.0162
32.842
33.7107
34.618
35.5584
36.5251
37.5104
38.5058
39.5025
</DataArray>
</CellData>
</Piece>
</RectilinearGrid>
</VTKFile>
